svg/regular/bx-basket.svg

<svg xmlns="http://www.w3.org/2000/svg" width="24" height="24"><path d="M21 9h-1.42l-3.712-6.496-1.736.992L17.277 9H6.723l3.146-5.504-1.737-.992L4.42 9H3a1.001 1.001 0 0 0-.965 1.263l2.799 10.264A2.005 2.005 0 0 0 6.764 22h10.473c.898 0 1.692-.605 1.93-1.475l2.799-10.263A.998.998 0 0 0 21 9zm-3.764 11v1-1H6.764L4.31 11h15.38l-2.454 9z"/><path d="M9 13h2v5H9zm4 0h2v5h-2z"/></svg>

<svg xmlns="http://www.w3.org/2000/svg" width="24" height="24" viewBox="0 0 24 24"><path d="M21,9h-1.42l-3.712-6.496l-1.736,0.992L17.277,9H6.723l3.146-5.504L8.132,2.504L4.42,9H3C2.688,9,2.395,9.146,2.205,9.393 c-0.189,0.248-0.252,0.57-0.17,0.87l2.799,10.264C5.071,21.395,5.865,22,6.764,22h10.473c0.898,0,1.692-0.605,1.93-1.475 l2.799-10.263c0.082-0.3,0.02-0.622-0.17-0.87C21.605,9.146,21.312,9,21,9z M17.236,20C17.236,20,17.236,20,17.236,20v1V20H6.764 L4.31,11H19.69L17.236,20z"/><path d="M9 13H11V18H9zM13 13H15V18H13z"/></svg>
